tools/download-figma-icons/icons/solid/compass.svg

<svg width="24" height="24" viewBox="0 0 24 24" fill="none" xmlns="http://www.w3.org/2000/svg">
<path fill-rule="evenodd" clip-rule="evenodd" d="M11.6253 12.953L13.2902 14.6179L14.7302 11.5205L11.6253 12.953ZM11.6253 12.953L13.2902 14.6179L14.7302 11.5205L11.6253 12.953ZM13.2902 14.6179L14.7302 11.5205L11.6253 12.953L13.2902 14.6179ZM16.9501 10.2898L14.1977 16.2222C14.1302 16.3879 13.9945 16.5154 13.837 16.5904L7.90458 19.3428C7.79958 19.3878 7.69533 19.4096 7.58959 19.4096C7.39459 19.4096 7.20034 19.3353 7.0571 19.1921C6.8321 18.9679 6.7721 18.6296 6.90785 18.3446L9.66029 12.4122C9.73454 12.248 9.86204 12.1205 10.0195 12.0455L15.9527 9.2923C16.2444 9.16481 16.5819 9.22481 16.7994 9.4423C17.0244 9.6673 17.0844 10.0048 16.9501 10.2898ZM11.932 1.49997C12.7952 1.49997 13.5002 2.20571 13.5002 3.06744C13.5002 3.93067 12.7952 4.63491 11.932 4.63491C11.0628 4.63491 10.3578 3.93067 10.3578 3.06744C10.3578 2.20571 11.0628 1.49997 11.932 1.49997ZM14.3319 4.95065C14.7444 4.43316 15.0002 3.78067 15.0002 3.06744C15.0002 1.37997 13.6195 0 11.932 0C10.237 0 8.85781 1.37997 8.85781 3.06744C8.85781 3.78067 9.11205 4.43316 9.52454 4.95065C5.34788 6.02313 2.25044 9.81055 2.25044 14.3172C2.25044 19.6571 6.5921 23.9995 11.932 23.9995C17.2651 23.9995 21.6075 19.6571 21.6075 14.3172C21.6075 9.81055 18.5101 6.02313 14.3319 4.95065ZM11.6253 12.953L13.2902 14.6179L14.7302 11.5205L11.6253 12.953ZM11.6253 12.953L13.2902 14.6179L14.7302 11.5205L11.6253 12.953Z" fill="black"/>
</svg>

<svg width="24" height="24" viewBox="0 0 24 24" fill="none" xmlns="http://www.w3.org/2000/svg"><path fill-rule="evenodd" clip-rule="evenodd" d="m11.625 12.953 1.665 1.665 1.44-3.098-3.105 1.433Zm0 0 1.665 1.665 1.44-3.098-3.105 1.433Zm1.665 1.665 1.44-3.098-3.105 1.433 1.665 1.665Zm3.66-4.328-2.752 5.932a.717.717 0 0 1-.361.368l-5.932 2.753a.79.79 0 0 1-.315.067.753.753 0 0 1-.533-.218.743.743 0 0 1-.15-.847l2.753-5.933a.744.744 0 0 1 .36-.367l5.933-2.753a.765.765 0 0 1 .846.15.746.746 0 0 1 .151.848ZM11.932 1.5c.863 0 1.568.706 1.568 1.567a1.571 1.571 0 0 1-3.142 0c0-.861.705-1.567 1.574-1.567Zm2.4 3.45c.412-.517.668-1.17.668-1.883A3.077 3.077 0 0 0 11.932 0a3.077 3.077 0 0 0-3.074 3.067c0 .714.254 1.366.667 1.884C5.348 6.023 2.25 9.81 2.25 14.317c0 5.34 4.342 9.683 9.682 9.683 5.333 0 9.676-4.343 9.676-9.683 0-4.506-3.098-8.294-7.276-9.366Zm-2.707 8.003 1.665 1.665 1.44-3.098-3.105 1.433Zm0 0 1.665 1.665 1.44-3.098-3.105 1.433Z" fill="currentColor"/></svg>
